public/man1.svg

<svg width="140" height="143" viewBox="0 0 140 143" fill="none" xmlns="http://www.w3.org/2000/svg">
<path fill-rule="evenodd" clip-rule="evenodd" d="M83.5 87.4043C83.3333 91.4043 84.1 102.004 86.5 104.404L132.5 123.904C135.5 127.904 141 137.304 139 142.904H0C1.16667 137.071 4.2 125.104 7 123.904C7.515 123.684 8.91748 123.087 10.9486 122.224C19.9603 118.393 41.347 109.301 52.5 104.404C55 101.404 56.8 92.2043 56 85.4043L83.5 87.4043Z" fill="#F3B29B"/>
<path d="M55.5 96.4043C56.5 90.9043 56 87.9043 56 85.4043H83V88.9043C78.5 96.4043 63.6667 96.9043 55.5 96.4043Z" fill="#3B2140"/>
<path d="M7 123.904C4.2 125.104 1.16667 137.071 0 142.904H139C141 137.304 135.5 127.904 132.5 123.904L90 105.904C90 105.904 88 123.904 69.5 123.904C51 123.904 48 106.404 48 106.404C34.3333 112.404 9.8 122.704 7 123.904Z" fill="#0470C7"/>
<path fill-rule="evenodd" clip-rule="evenodd" d="M70.5 15.4043C54.7971 15.4043 42.3616 28.6734 43.3792 44.3434L43.575 47.3597L42.5005 46.4045C37.1672 43.4045 27.4005 41.1045 31.0005 55.9045C33.4729 66.0689 39.7028 69.4254 45.0905 69.991C46.6806 82.7139 57.5185 92.4043 70.5 92.4043C83.4815 92.4043 94.3194 82.7139 95.9095 69.991C101.297 69.4254 107.527 66.0689 110 55.9045C113.6 41.1045 103.833 43.4045 98.4995 46.4045L97.425 47.3597L97.6208 44.3433C98.6384 28.6734 86.2029 15.4043 70.5 15.4043Z" fill="#F3B29B"/>
<path fill-rule="evenodd" clip-rule="evenodd" d="M102.719 51.7539C103.754 50.6254 104.925 49.6068 105.693 49.0096L106.307 49.799C105.575 50.3685 104.446 51.3498 103.456 52.4297C102.961 52.9694 102.508 53.5258 102.157 54.0612C101.962 54.3593 101.804 54.6419 101.688 54.9043H104.5V55.9043H100.39L100.51 55.3062C100.628 54.7164 100.935 54.1023 101.321 53.5131C101.711 52.9182 102.201 52.3183 102.719 51.7539Z" fill="#E99486"/>
<path fill-rule="evenodd" clip-rule="evenodd" d="M37.0972 52.1005C36.2822 50.9921 35.2998 49.9112 34.6464 49.2579L35.3536 48.5507C36.0335 49.2307 37.0511 50.3498 37.9028 51.5081C38.3285 52.087 38.7206 52.6863 39.0083 53.2529C39.2897 53.8071 39.5 54.3845 39.5 54.9043V55.3279L36.0822 55.8975L35.9178 54.9111L38.4353 54.4915C38.3741 54.2686 38.2689 54.0053 38.1167 53.7057C37.8628 53.2056 37.5049 52.6549 37.0972 52.1005Z" fill="#E99486"/>
<path fill-rule="evenodd" clip-rule="evenodd" d="M71.3602 81.4641C69.8955 81.3101 68.5562 80.7853 67.7572 80.3414L68.2428 79.4672C68.9438 79.8566 70.1545 80.3318 71.4648 80.4695C72.7736 80.6071 74.12 80.4035 75.1799 79.5202L75.8201 80.2884C74.48 81.4051 72.8264 81.6182 71.3602 81.4641Z" fill="#EA9283"/>
<path fill-rule="evenodd" clip-rule="evenodd" d="M71.7138 76.6293C68.3545 76.6378 64.9401 75.7189 62.8143 74.8685L63.1857 73.9401C65.2266 74.7564 68.5122 75.6374 71.7112 75.6293C74.9191 75.6211 77.914 74.7246 79.5794 72.1339L80.4206 72.6747C78.486 75.684 75.0642 76.6208 71.7138 76.6293Z" fill="#EA9283"/>
<path fill-rule="evenodd" clip-rule="evenodd" d="M68.9398 62.6079C69.1691 60.148 69.4178 57.285 69.5005 55.3826L70.4995 55.426C70.4156 57.3569 70.1645 60.2439 69.9355 62.7007C69.8562 63.5511 69.7794 64.3524 69.7129 65.0461C69.6832 65.3554 69.6556 65.6434 69.6308 65.9048C69.5904 66.3292 69.5573 66.683 69.5344 66.9458C69.5229 67.0774 69.5141 67.1845 69.5081 67.2656C69.5052 67.3062 69.5031 67.3388 69.5017 67.3639L69.5008 67.3831C69.5049 67.3926 69.5136 67.4102 69.5305 67.436C69.5712 67.4983 69.6427 67.5808 69.75 67.6705C69.9642 67.8494 70.2849 68.0266 70.6785 68.1207C71.4391 68.3025 72.5134 68.1837 73.6464 67.0507L74.3536 67.7579C72.9866 69.1249 71.5606 69.3597 70.446 69.0933C69.9021 68.9632 69.4415 68.7158 69.1088 68.4379C68.9428 68.2991 68.7994 68.1451 68.6938 67.9837C68.5938 67.8309 68.4998 67.6289 68.5 67.4039C68.5001 67.2479 68.5565 66.6377 68.6352 65.8101C68.6602 65.5474 68.6879 65.2587 68.7176 64.9488C68.7841 64.2557 68.8607 63.457 68.9398 62.6079Z" fill="#EA9283"/>
<path d="M61.5 52.4043C61.5 54.6134 60.6046 56.4043 59.5 56.4043C58.3954 56.4043 57.5 54.6134 57.5 52.4043C57.5 50.1952 58.3954 48.4043 59.5 48.4043C60.6046 48.4043 61.5 50.1952 61.5 52.4043Z" fill="#3F232F"/>
<path d="M84.5 52.4043C84.5 54.6134 83.6046 56.4043 82.5 56.4043C81.3954 56.4043 80.5 54.6134 80.5 52.4043C80.5 50.1952 81.3954 48.4043 82.5 48.4043C83.6046 48.4043 84.5 50.1952 84.5 52.4043Z" fill="#3F232F"/>
<path d="M80.0019 41.9042C80.0021 43.4343 81.0003 43.6542 82.5018 43.9042C86.0016 44.4869 87.502 46.4044 88.502 46.4044C89.502 46.4044 91.002 45.9044 90.502 43.9042C90.002 41.904 84.4995 39.9043 82.4995 39.9043C81.4995 39.9043 80.0015 39.9043 80.0019 41.9042Z" fill="#3D2035"/>
<path d="M63.0995 41.9042C63.0992 43.4343 62.1011 43.6542 60.5995 43.9042C57.0997 44.4869 55.5993 46.4044 54.5993 46.4044C53.5993 46.4044 52.0993 45.9044 52.5993 43.9042C53.0993 41.904 58.6019 39.9043 60.6019 39.9043C61.6019 39.9043 63.0999 39.9043 63.0995 41.9042Z" fill="#3D2035"/>
<path d="M44.4758 52.2448L44.5179 52.4046C48.5179 48.9043 47.4814 36.8966 48.5179 32.4049C50.0179 25.9046 55.0179 25.9046 67.0179 32.4049C79.0179 38.9053 89.5179 27.9049 89.5179 29.9049C89.5179 31.5049 92.8512 35.5716 94.5179 37.4049C95.1846 43.4049 96.7179 54.8048 97.5179 52.4046C98.5179 49.4043 99.0179 41.4046 103.518 37.4049C108.018 33.4052 104.018 25.9047 100.518 21.9051C97.0179 17.9054 107.083 12.8185 99.0179 3.90501C89.5179 -6.5949 67.0176 7.40453 63.5176 7.40456C60.0176 7.40459 57.5179 0.905189 50.0179 1.40489C38.997 2.13917 44.5179 11.9049 44.5179 14.9049C44.5179 17.9049 42.5179 16.4049 37.5179 17.4049C33.5179 18.2049 33.8512 23.2379 35.5179 25.9046C28.0179 37.4046 39.5176 40.9051 41.0176 42.4051C42.1977 43.5851 43.6359 49.052 44.4758 52.2448Z" fill="#3D2035"/>
<path d="M72 130.404C72 131.509 71.1046 132.404 70 132.404C68.8954 132.404 68 131.509 68 130.404C68 129.3 68.8954 128.404 70 128.404C71.1046 128.404 72 129.3 72 130.404Z" fill="#D9D9D9"/>
<path d="M72 138.404C72 139.509 71.1046 140.404 70 140.404C68.8954 140.404 68 139.509 68 138.404C68 137.3 68.8954 136.404 70 136.404C71.1046 136.404 72 137.3 72 138.404Z" fill="#D9D9D9"/>
</svg>

<?xml version="1.0" encoding="UTF-8"?>
<svg id="Layer_1" data-name="Layer 1" xmlns="http://www.w3.org/2000/svg" viewBox="0 0 139.43 142.9">
  <defs>
    <style>
      .cls-1 {
        fill: #0470c7;
      }

      .cls-2 {
        fill: #d9d9d9;
      }

      .cls-3 {
        fill: #3f232f;
      }

      .cls-4 {
        fill: #3b2140;
      }

      .cls-5 {
        fill: #3d2035;
      }

      .cls-6 {
        fill: #f3b29b;
      }

      .cls-6, .cls-7, .cls-8 {
        fill-rule: evenodd;
      }

      .cls-7 {
        fill: #ea9283;
      }

      .cls-8 {
        fill: #e99486;
      }
    </style>
  </defs>
  <path class="cls-6" d="M83.5,87.4c-.17,4,.6,14.6,3,17l46,19.5c3,4,8.5,13.4,6.5,19H0c1.17-5.83,4.2-17.8,7-19,.51-.22,1.92-.82,3.95-1.68,9.01-3.83,30.4-12.92,41.55-17.82,2.5-3,4.3-12.2,3.5-19l27.5,2Z"/>
  <path class="cls-4" d="M55.5,96.4c1-5.5,.5-8.5,.5-11h27v3.5c-4.5,7.5-19.33,8-27.5,7.5Z"/>
  <path class="cls-1" d="M7,123.9c-2.8,1.2-5.83,13.17-7,19H139c2-5.6-3.5-15-6.5-19l-42.5-18s-2,18-20.5,18-21.5-17.5-21.5-17.5c-13.67,6-38.2,16.3-41,17.5Z"/>
  <path class="cls-6" d="M70.5,15.4c-15.7,0-28.14,13.27-27.12,28.94l.2,3.02-1.07-.96c-5.33-3-15.1-5.3-11.5,9.5,2.47,10.16,8.7,13.52,14.09,14.09,1.59,12.72,12.43,22.41,25.41,22.41s23.82-9.69,25.41-22.41c5.39-.57,11.62-3.92,14.09-14.09,3.6-14.8-6.17-12.5-11.5-9.5l-1.07,.96,.2-3.02c1.02-15.67-11.42-28.94-27.12-28.94Z"/>
  <path class="cls-8" d="M102.72,51.75c1.03-1.13,2.21-2.15,2.97-2.74l.61,.79c-.73,.57-1.86,1.55-2.85,2.63-.5,.54-.95,1.1-1.3,1.63-.19,.3-.35,.58-.47,.84h2.81v1h-4.11l.12-.6c.12-.59,.42-1.2,.81-1.79,.39-.59,.88-1.19,1.4-1.76Z"/>
  <path class="cls-8" d="M37.1,52.1c-.81-1.11-1.8-2.19-2.45-2.84l.71-.71c.68,.68,1.7,1.8,2.55,2.96,.43,.58,.82,1.18,1.11,1.74,.28,.55,.49,1.13,.49,1.65v.42l-3.42,.57-.16-.99,2.52-.42c-.06-.22-.17-.49-.32-.79-.25-.5-.61-1.05-1.02-1.61Z"/>
  <path class="cls-7" d="M71.36,81.46c-1.46-.15-2.8-.68-3.6-1.12l.49-.87c.7,.39,1.91,.86,3.22,1,1.31,.14,2.66-.07,3.72-.95l.64,.77c-1.34,1.12-2.99,1.33-4.46,1.18Z"/>
  <path class="cls-7" d="M71.71,76.63c-3.36,0-6.77-.91-8.9-1.76l.37-.93c2.04,.82,5.33,1.7,8.53,1.69,3.21,0,6.2-.9,7.87-3.5l.84,.54c-1.93,3.01-5.36,3.95-8.71,3.95Z"/>
  <path class="cls-7" d="M68.94,62.61c.23-2.46,.48-5.32,.56-7.23l1,.04c-.08,1.93-.33,4.82-.56,7.27-.08,.85-.16,1.65-.22,2.35-.03,.31-.06,.6-.08,.86-.04,.42-.07,.78-.1,1.04-.01,.13-.02,.24-.03,.32,0,.04,0,.07,0,.1v.02s.01,.03,.03,.05c.04,.06,.11,.14,.22,.23,.21,.18,.53,.36,.93,.45,.76,.18,1.83,.06,2.97-1.07l.71,.71c-1.37,1.37-2.79,1.6-3.91,1.34-.54-.13-1-.38-1.34-.66-.17-.14-.31-.29-.42-.45-.1-.15-.19-.35-.19-.58,0-.16,.06-.77,.14-1.59,.03-.26,.05-.55,.08-.86,.07-.69,.14-1.49,.22-2.34Z"/>
  <path class="cls-3" d="M61.5,52.4c0,2.21-.9,4-2,4s-2-1.79-2-4,.9-4,2-4,2,1.79,2,4Z"/>
  <path class="cls-3" d="M84.5,52.4c0,2.21-.9,4-2,4s-2-1.79-2-4,.9-4,2-4,2,1.79,2,4Z"/>
  <path class="cls-5" d="M80,41.9c0,1.53,1,1.75,2.5,2,3.5,.58,5,2.5,6,2.5s2.5-.5,2-2.5c-.5-2-6-4-8-4-1,0-2.5,0-2.5,2Z"/>
  <path class="cls-5" d="M63.1,41.9c0,1.53-1,1.75-2.5,2-3.5,.58-5,2.5-6,2.5s-2.5-.5-2-2.5c.5-2,6-4,8-4,1,0,2.5,0,2.5,2Z"/>
  <path class="cls-5" d="M44.48,52.24l.04,.16c4-3.5,2.96-15.51,4-20,1.5-6.5,6.5-6.5,18.5,0,12,6.5,22.5-4.5,22.5-2.5,0,1.6,3.33,5.67,5,7.5,.67,6,2.2,17.4,3,15,1-3,1.5-11,6-15,4.5-4,.5-11.5-3-15.5-3.5-4,6.57-9.09-1.5-18-9.5-10.5-32,3.5-35.5,3.5S57.52,.91,50.02,1.4c-11.02,.73-5.5,10.5-5.5,13.5s-2,1.5-7,2.5c-4,.8-3.67,5.83-2,8.5-7.5,11.5,4,15,5.5,16.5,1.18,1.18,2.62,6.65,3.46,9.84Z"/>
  <path class="cls-2" d="M72,130.4c0,1.1-.9,2-2,2s-2-.9-2-2,.9-2,2-2,2,.9,2,2Z"/>
  <path class="cls-2" d="M72,138.4c0,1.1-.9,2-2,2s-2-.9-2-2,.9-2,2-2,2,.9,2,2Z"/>
</svg>
